ix/timer-start_bold.svg

<svg viewBox="0 0 24 24" fill="none" xmlns="http://www.w3.org/2000/svg" height="1em" width="1em">
  <path d="M14.8906 3.45H9.11062C8.71062 3.45 8.39062 3.13 8.39062 2.73C8.39062 2.33 8.71062 2 9.11062 2H14.8906C15.2906 2 15.6106 2.32 15.6106 2.72C15.6106 3.12 15.2906 3.45 14.8906 3.45Z" fill="#292D32"/>
  <path d="M19.97 15H17.03C15.76 15 15 15.76 15 17.03V19.97C15 21.24 15.76 22 17.03 22H19.97C21.24 22 22 21.24 22 19.97V17.03C22 15.76 21.24 15 19.97 15ZM19.69 19.46L18.51 20.14C18.27 20.28 18.03 20.35 17.81 20.35C17.64 20.35 17.49 20.31 17.35 20.23C17.03 20.04 16.85 19.67 16.85 19.18V17.82C16.85 17.33 17.03 16.96 17.35 16.77C17.67 16.58 18.08 16.62 18.51 16.86L19.69 17.54C20.11 17.79 20.35 18.13 20.35 18.5C20.35 18.87 20.12 19.21 19.69 19.46Z" fill="#292D32"/>
  <path d="M14.0001 19.9684V17.0284C14.0001 15.2184 15.2201 13.9984 17.0301 13.9984H19.9701C20.2001 13.9984 20.4201 14.0184 20.6301 14.0584C20.6501 13.8184 20.6701 13.5784 20.6701 13.3284C20.6701 8.53844 16.7801 4.64844 12.0001 4.64844C7.22008 4.64844 3.33008 8.53844 3.33008 13.3284C3.33008 18.1084 7.22008 21.9984 12.0001 21.9984C12.8501 21.9984 13.6601 21.8584 14.4401 21.6384C14.1601 21.1684 14.0001 20.6084 14.0001 19.9684ZM12.7501 12.9984C12.7501 13.4084 12.4101 13.7484 12.0001 13.7484C11.5901 13.7484 11.2501 13.4084 11.2501 12.9984V7.99844C11.2501 7.58844 11.5901 7.24844 12.0001 7.24844C12.4101 7.24844 12.7501 7.58844 12.7501 7.99844V12.9984Z" fill="#292D32"/>
</svg>

<svg viewBox="0 0 24 24" fill="none" xmlns="http://www.w3.org/2000/svg" height="1em" width="1em">
  <path d="M14.89 3.45H9.11c-.4 0-.72-.32-.72-.72 0-.4.32-.73.72-.73h5.78c.4 0 .72.32.72.72 0 .4-.32.73-.72.73ZM19.97 15h-2.94c-1.27 0-2.03.76-2.03 2.03v2.94c0 1.27.76 2.03 2.03 2.03h2.94c1.27 0 2.03-.76 2.03-2.03v-2.94c0-1.27-.76-2.03-2.03-2.03Zm-.28 4.46-1.18.68c-.24.14-.48.21-.7.21-.17 0-.32-.04-.46-.12-.32-.19-.5-.56-.5-1.05v-1.36c0-.49.18-.86.5-1.05.32-.19.73-.15 1.16.09l1.18.68c.42.25.66.59.66.96s-.23.71-.66.96Z" fill="#292D32"/>
  <path d="M14 19.968v-2.94c0-1.81 1.22-3.03 3.03-3.03h2.94c.23 0 .45.02.66.06.02-.24.04-.48.04-.73 0-4.79-3.89-8.68-8.67-8.68-4.78 0-8.67 3.89-8.67 8.68 0 4.78 3.89 8.67 8.67 8.67.85 0 1.66-.14 2.44-.36a3.22 3.22 0 0 1-.44-1.67Zm-1.25-6.97c0 .41-.34.75-.75.75s-.75-.34-.75-.75v-5c0-.41.34-.75.75-.75s.75.34.75.75v5Z" fill="#292D32"/>
</svg>
